X: 46
T:Pretty Pegg
M:4/4
R:reel
L:1/8
Z:added by Alf 
K:D
A|:d/2d/2d fd AFDF|d/2d/2d fd e/2f/2g fe|d/2d/2d fd AFDF|GEFD CEEA:|
F/2E/2D AD BDAD|G/2F/2E F/2E/2D CEE3/2G/2|F/2E/2D AD BDAD|G/2F/2E F/2E/2D A,DDA|
F/2E/2D dD cDBD|AD F/2E/2D CEEG|FAdf ecdB|AFGE D3|]
